!!!LAR: Arban, Jean-Baptiste
!!!OTL: Russian Hymn
!!!OPR: The Art of Phrasing: 150 Classic and Popular Melodies
!!!ONM: No. 013
!!!OMD: Maestoso
**kern	**dynam
*ITromp	*
*ITrd1c2	*
*clefG2	*
*E-:	*
*k[b-e-a-]	*
*M4/4	*
*met(c)	*
=1	=1
2b-	ff
4cc	.
4cc	.
=2	=2
(4.b-	.
8g)	.
4e-,	.
4e-	.
=3	=3
(2ee-	.
4dd)	.
4cc	.
=4	=4
2b-	.
2cc^,	.
=5	=5
2a-^	.
2b-^	.
=6	=6
(4.g	.
8g)	.
4g	.
*g:	*
4an	.
=7	=7
2b-	.
2an	.
=8	=8
2g	.
2r	.
=9	=9
*c:	*
(2a-	p
4g	.
4f)	.
=10	=10
(4.g	.
8g)	.
4g,	<
4g	.
=11	=11
(4.ee-	.
8dd)	.
4cc	.
4b	.
=12	=12
2cc	.
*E-:	*
2b-,	.
=13	=13
(2ee-	ff
4dd)	.
4cc	.
=14	=14
2.b-,	.
4a-	.
=15	=15
2g	.
(4.f	.
8e-)	.
=16	=16
(2e-	.
4e-)	.
4r	.
==|!	==|!
*-	*-
!!!OCL: Edwin Franko Goldman
!!!OCL: Walter M. Smith
!!!OCL: Claude Gordon
!!!YOR: Arban's Complete Conservatory Method for Trumpet/Cornet
!!!PPR: Carl Fischer
!!!PPP: New York, NY
!!!PDT: 1893///
!!!reprint: Carl Fischer, 1982: ISBN 0-8258-0385-3
!!!EFL: 13/150
!!!ENC: Hubert Léveillé Gauvin
!!!END: 2021/08/31/
